packages/icons/src/emoji/svg/taxi.svg

<svg width="120" height="120" viewBox="0 0 120 120" fill="none" xmlns="http://www.w3.org/2000/svg">
<path d="M63.2809 39.0752C62.8027 39.0752 62.409 38.4658 62.409 37.7252V31.7439C62.409 31.0033 61.809 30.4033 61.0684 30.4033H56.859C56.1184 30.4033 55.509 31.0127 55.509 31.7439V37.7252C55.509 38.4658 55.1152 39.0752 54.6371 39.0752C54.159 39.0752 53.7559 39.6846 53.7559 40.4158V42.7971C53.7559 43.5377 54.1496 44.1377 54.6371 44.1377H63.2902C63.7684 44.1377 64.1621 43.5377 64.1621 42.7971V40.4158C64.1621 39.6846 63.7684 39.0752 63.2809 39.0752Z" fill="#78A3AD"/>
<path d="M113.971 74.2408C109.584 69.8533 102.721 68.4846 102.721 68.4846C102.721 68.4846 99.1308 59.1564 96.1027 55.0971C87.8714 44.0346 77.5683 41.5596 60.8714 41.5596C49.3308 41.5596 37.8746 42.0002 28.4902 53.8221C24.8996 58.3502 19.0121 68.4846 19.0121 68.4846C19.0121 68.4846 9.62769 70.5846 4.88394 75.8721C1.24644 79.9221 -1.48168 93.5908 3.31832 98.3815C7.75269 102.816 12.5902 105 15.8058 105H105.028C109.875 105 113.953 102.563 116.503 98.4752C120.871 91.4627 118.35 78.6283 113.971 74.2408Z" fill="#FCC21B"/>
<mask id="mask0_212_113" style="mask-type:luminance" maskUnits="userSpaceOnUse" x="0" y="41" width="119" height="64">
<path d="M113.971 74.2408C109.584 69.8533 102.721 68.4846 102.721 68.4846C102.721 68.4846 99.1308 59.1564 96.1027 55.0971C87.8714 44.0346 77.5683 41.5596 60.8714 41.5596C49.3308 41.5596 37.8746 42.0002 28.4902 53.8221C24.8996 58.3502 19.0121 68.4846 19.0121 68.4846C19.0121 68.4846 9.62769 70.5846 4.88394 75.8721C1.24644 79.9221 -1.48168 93.5908 3.31832 98.3815C7.75269 102.816 12.5902 105 15.8058 105H105.028C109.875 105 113.953 102.563 116.503 98.4752C120.871 91.4627 118.35 78.6283 113.971 74.2408Z" fill="white"/>
</mask>
<g mask="url(#mask0_212_113)">
<path d="M-3.87207 79.7534H35.6717V93.7034H-3.87207V79.7534ZM82.2185 79.7534H121.959V93.7034H82.2185V79.7534Z" fill="#F79329"/>
</g>
<path d="M38.1754 102.853C38.1754 108.703 33.4316 113.456 27.5816 113.456C21.7223 113.456 16.9785 108.713 16.9785 102.853C16.9785 97.0032 21.7223 92.2688 27.5816 92.2688C33.4316 92.2688 38.1754 97.0032 38.1754 102.853ZM102.188 102.853C102.188 108.703 97.4348 113.456 91.5941 113.456C85.7348 113.456 80.991 108.713 80.991 102.853C80.991 97.0032 85.7348 92.2688 91.5941 92.2688C97.4348 92.2688 102.188 97.0032 102.188 102.853ZM56.2504 81.0564H53.7473C53.6441 81.0564 53.5598 81.1126 53.5223 81.2064L49.4816 91.9501C49.4535 92.0251 49.4629 92.1095 49.5098 92.1657C49.5566 92.2313 49.6223 92.2782 49.7066 92.2782H52.3598C52.4629 92.2782 52.5566 92.2126 52.5848 92.1095L53.2035 90.2626H56.8129L57.4223 92.1095C57.4598 92.2126 57.5441 92.2782 57.6566 92.2782H60.3004C60.3754 92.2782 60.4504 92.2313 60.4973 92.1657C60.5441 92.1095 60.5535 92.0251 60.5348 91.9501L56.4941 81.2064C56.4379 81.1126 56.3535 81.0564 56.2504 81.0564ZM53.9441 87.9939L54.9941 84.8345L56.0441 87.9939H53.9441ZM77.0066 81.0564H74.3535C74.2223 81.0564 74.1191 81.1689 74.1191 81.3001V92.0439C74.1191 92.1751 74.2316 92.2876 74.3535 92.2876H77.0066C77.1379 92.2876 77.2504 92.1751 77.2504 92.0439V81.3001C77.2504 81.1689 77.1379 81.0564 77.0066 81.0564ZM69.1598 86.7095L72.7035 81.4314C72.7598 81.3564 72.7598 81.2626 72.7223 81.1782C72.701 81.14 72.6697 81.1084 72.6316 81.0869C72.5936 81.0654 72.5503 81.0548 72.5066 81.0564H69.516C69.441 81.0564 69.366 81.1032 69.3191 81.1595L67.3316 84.047L65.3348 81.1595C65.314 81.1264 65.2848 81.0995 65.2502 81.0814C65.2156 81.0633 65.1769 81.0546 65.1379 81.0564H62.1566C62.0723 81.0564 61.9879 81.1032 61.9504 81.1782C61.9129 81.2626 61.9129 81.3564 61.9598 81.4314L65.5129 86.7095L61.941 91.9126C61.8848 91.9782 61.8848 92.0814 61.9223 92.1564C61.9598 92.2407 62.0348 92.2876 62.1379 92.2876H65.2785C65.3535 92.2876 65.4379 92.2407 65.4754 92.1751L67.3316 89.4188L69.1785 92.1751C69.2254 92.2407 69.3004 92.2876 69.3754 92.2876H72.516C72.5598 92.288 72.6028 92.2763 72.6403 92.2538C72.6779 92.2313 72.7085 92.1989 72.7289 92.1602C72.7492 92.1214 72.7585 92.0778 72.7557 92.0341C72.7528 91.9905 72.738 91.9484 72.7129 91.9126L69.1598 86.7095ZM50.766 83.1282V81.1876C50.766 81.0563 50.6535 80.9438 50.5223 80.9438H40.2379C40.116 80.9438 40.0035 81.0563 40.0035 81.1876V83.1282C40.0035 83.2595 40.116 83.372 40.2379 83.372H43.9598V92.0439C43.9598 92.1751 44.0723 92.2876 44.1941 92.2876H46.5473C46.6785 92.2876 46.791 92.1751 46.791 92.0439V83.372H50.5129C50.6535 83.3626 50.766 83.2595 50.766 83.1282Z" fill="#2F2F2F"/>
<path d="M54.9377 66.8905C54.9377 69.5624 53.2221 70.4624 51.1127 70.4624H36.1596C30.9846 70.4624 33.769 62.6436 38.8221 57.103C43.8752 51.5624 51.6565 51.1217 52.7252 51.3936C54.7877 51.8999 54.9377 53.8124 54.9377 55.903V66.8905ZM61.3971 66.8905C61.3971 69.5624 63.8909 70.4624 66.919 70.4624H86.6252C94.1065 70.4624 89.7659 59.5686 82.1627 54.4405C76.7627 50.803 66.1409 51.1217 64.594 51.3842C61.6034 51.8905 61.3971 53.803 61.3971 55.8936V66.8905Z" fill="#40C0E7"/>
</svg>

<svg xmlns="http://www.w3.org/2000/svg" fill="none" aria-hidden="true" data-slot="icon" viewBox="0 0 120 120"><path fill="#78A3AD" d="M63.28 39.075c-.477 0-.871-.61-.871-1.35v-5.981c0-.74-.6-1.34-1.34-1.34h-4.21c-.74 0-1.35.609-1.35 1.34v5.981c0 .74-.394 1.35-.872 1.35s-.881.61-.881 1.34v2.382c0 .74.394 1.34.881 1.34h8.653c.478 0 .872-.6.872-1.34v-2.381c0-.731-.394-1.34-.881-1.34"/><path fill="#FCC21B" d="M113.971 74.24c-4.387-4.387-11.25-5.755-11.25-5.755s-3.59-9.329-6.618-13.388C87.87 44.035 77.568 41.56 60.87 41.56c-11.54 0-22.996.44-32.38 12.262-3.591 4.528-9.479 14.663-9.479 14.663s-9.384 2.1-14.128 7.387c-3.638 4.05-6.366 17.719-1.566 22.51C7.753 102.816 12.59 105 15.806 105h89.222c4.847 0 8.925-2.437 11.475-6.525 4.368-7.012 1.847-19.847-2.532-24.234"/><mask id="a" width="119" height="64" x="0" y="41" maskUnits="userSpaceOnUse" style="mask-type:luminance"><path fill="#fff" d="M113.971 74.24c-4.387-4.387-11.25-5.755-11.25-5.755s-3.59-9.329-6.618-13.388C87.87 44.035 77.568 41.56 60.87 41.56c-11.54 0-22.996.44-32.38 12.262-3.591 4.528-9.479 14.663-9.479 14.663s-9.384 2.1-14.128 7.387c-3.638 4.05-6.366 17.719-1.566 22.51C7.753 102.816 12.59 105 15.806 105h89.222c4.847 0 8.925-2.437 11.475-6.525 4.368-7.012 1.847-19.847-2.532-24.234"/></mask><g mask="url(#a)"><path fill="#F79329" d="M-3.872 79.753h39.544v13.95H-3.872zm86.09 0h39.741v13.95h-39.74z"/></g><path fill="#2F2F2F" d="M38.175 102.853c0 5.85-4.743 10.603-10.593 10.603a10.6 10.6 0 0 1-10.603-10.603c0-5.85 4.743-10.584 10.603-10.584 5.85 0 10.593 4.734 10.593 10.584m64.013 0c0 5.85-4.753 10.603-10.594 10.603a10.6 10.6 0 0 1-10.603-10.603c0-5.85 4.744-10.584 10.603-10.584 5.84 0 10.594 4.734 10.594 10.584M56.25 81.056h-2.503a.23.23 0 0 0-.225.15l-4.04 10.744a.22.22 0 0 0 .028.216c.047.065.112.112.197.112h2.653a.23.23 0 0 0 .225-.169l.618-1.846h3.61l.61 1.846a.24.24 0 0 0 .234.17H60.3c.075 0 .15-.048.197-.113.047-.056.056-.14.038-.216l-4.04-10.744c-.057-.093-.142-.15-.245-.15m-2.306 6.938 1.05-3.16 1.05 3.16zm23.063-6.938h-2.654a.24.24 0 0 0-.234.244v10.744c0 .131.113.244.234.244h2.654a.25.25 0 0 0 .243-.244V81.3a.25.25 0 0 0-.243-.244M69.16 86.71l3.544-5.279c.056-.075.056-.168.018-.253a.24.24 0 0 0-.215-.122h-2.991a.27.27 0 0 0-.197.103l-1.987 2.888-1.997-2.888a.22.22 0 0 0-.197-.103h-2.981a.23.23 0 0 0-.207.122.27.27 0 0 0 .01.253l3.553 5.279-3.572 5.203c-.056.065-.056.168-.019.243.038.085.113.132.216.132h3.14a.24.24 0 0 0 .197-.113l1.857-2.756 1.847 2.756a.26.26 0 0 0 .196.113h3.141a.237.237 0 0 0 .197-.375zm-18.394-3.582v-1.94a.25.25 0 0 0-.244-.244H40.238c-.122 0-.234.112-.234.244v1.94c0 .132.112.244.234.244h3.722v8.672c0 .131.112.244.234.244h2.353a.25.25 0 0 0 .244-.244v-8.672h3.722c.14-.01.253-.112.253-.244"/><path fill="#40C0E7" d="M54.938 66.89c0 2.672-1.716 3.572-3.825 3.572H36.16c-5.175 0-2.391-7.818 2.662-13.359 5.053-5.54 12.834-5.981 13.903-5.71 2.063.507 2.213 2.42 2.213 4.51zm6.46 0c0 2.672 2.493 3.572 5.521 3.572h19.706c7.481 0 3.14-10.893-4.462-16.022-5.4-3.637-16.022-3.318-17.569-3.056-2.99.507-3.197 2.419-3.197 4.51z"/></svg>
